applications/plugins/org.csstudio.opibuilder.imagelib/SymbolLibrary/SVG/Fluid/Pumps/PV Positive-displacement Vacuum Pump On.svg

<?xml version="1.0" encoding="UTF-8" standalone="no"?>
<!-- Généré par Microsoft Visio 11.0, SVG Export, v1.0 FL_EF1101.svg Page 1 -->

<!--
/*******************************************************************************
* Copyright (c) 2010-2014 ITER Organization.
* All rights reserved. This program and the accompanying materials
* are made available under the terms of the Eclipse Public License v1.0
* which accompanies this distribution, and is available at
* http://www.eclipse.org/legal/epl-v10.html
******************************************************************************/
-->
<svg
   xmlns:v="http://schemas.microsoft.com/visio/2003/SVGExtensions/"
   xmlns:dc="http://purl.org/dc/elements/1.1/"
   xmlns:cc="http://creativecommons.org/ns#"
   xmlns:rdf="http://www.w3.org/1999/02/22-rdf-syntax-ns#"
   xmlns:svg="http://www.w3.org/2000/svg"
   xmlns="http://www.w3.org/2000/svg"
   xmlns:sodipodi="http://sodipodi.sourceforge.net/DTD/sodipodi-0.dtd"
   xmlns:inkscape="http://www.inkscape.org/namespaces/inkscape"
   width="0.374723in"
   height="0.492441in"
   viewBox="0 0 26.9801 35.4557"
   xml:space="preserve"
   color-interpolation-filters="sRGB"
   class="st3"
   id="svg2"
   version="1.1"
   inkscape:version="0.48.2 r9819"
   sodipodi:docname="FL_EF1101.svg"><metadata
   id="metadata54"><rdf:RDF><cc:Work
       rdf:about=""><dc:format>image/svg+xml</dc:format><dc:type
         rdf:resource="http://purl.org/dc/dcmitype/StillImage" /></cc:Work></rdf:RDF></metadata><defs
   id="defs52">
		
		<v:pageProperties
   v:shadowOffsetY="-8.50394"
   v:shadowOffsetX="8.50394"
   v:drawingUnits="24"
   v:pageScale="0.0393701"
   v:drawingScale="0.0393701" />
		
		
	
			
			
		
			
			
			
		
				
				
			
				
				
			
				
				
				
			
					
			
				
					
					
					
				
						
						
					
						
						
					
				
				
			</defs><sodipodi:namedview
   pagecolor="#ffffff"
   bordercolor="#666666"
   borderopacity="1"
   objecttolerance="10"
   gridtolerance="10"
   guidetolerance="10"
   inkscape:pageopacity="0"
   inkscape:pageshadow="2"
   inkscape:window-width="1366"
   inkscape:window-height="706"
   id="namedview50"
   showgrid="false"
   inkscape:zoom="5.3249469"
   inkscape:cx="-12.433533"
   inkscape:cy="22.159845"
   inkscape:window-x="-8"
   inkscape:window-y="-8"
   inkscape:window-maximized="1"
   inkscape:current-layer="svg2" />
	<v:documentProperties
   v:langID="1036"
   v:metric="true"
   v:viewMarkup="false" />
	<style
   type="text/css"
   id="style4">
	
		.st1 {fill:#ffffff;stroke:none;stroke-linecap:round;stroke-linejoin:round;stroke-width:0.72}
		.st2 {fill:#ffffff;stroke:none;stroke-linecap:round;stroke-linejoin:round;stroke-width:0.719998}
		.st3 {fill:none;fill-rule:evenodd;font-size:12;overflow:visible;stroke-linecap:square;stroke-miterlimit:3}
		.st4 {fill:#ffffff;stroke:#000000;stroke-linecap:round;stroke-linejoin:round;stroke-width:0.719998}
	
	</style>
	<g
   id="g3872"><rect
     x="0.72000003"
     y="0.72000164"
     width="0.0159449"
     height="0.0212598"
     class="st1"
     id="rect16"
     style="fill:#ffffff;stroke:none" /><rect
     x="26.2159"
     y="34.7145"
     width="0.0159449"
     height="0.0212598"
     class="st1"
     id="rect21"
     style="fill:#ffffff;stroke:none" /><rect
     x="0.72000003"
     y="0.7200067"
     width="0.028346401"
     height="0.028346401"
     class="st2"
     id="rect35"
     style="fill:#ffffff;stroke:none" /><rect
     x="26.231701"
     y="34.650608"
     width="0.028346401"
     height="0.028346401"
     class="st2"
     id="rect40"
     style="fill:#ffffff;stroke:none" /><path
     d="m 24.529571,11.350478 a 12.7559,12.7559 0 0 0 -17.4200004,-4.67 l 17.4200004,4.67 z m -11.04,3.18 -6.3800004,0 0,6.38 6.3800004,0 0,-6.38 z m -6.3800004,14.24 17.4200004,-4.67 a 12.7559,12.7559 0 0 0 0,-12.75 l -17.4200004,-4.67 a 12.7559,12.7559 0 0 0 0,22.09 z m 6.3800004,-14.24 0,6.38 -6.3800004,0 0,-6.38 6.3800004,0 z m -6.3800004,14.24 a 12.7559,12.7559 0 0 0 17.4200004,-4.67 l -17.4200004,4.67 z"
     class="st4"
     id="path48"
     inkscape:connector-curvature="0"
     style="fill:#a6a6a6;stroke:#000000;stroke-width:0.71999800000000003;stroke-linecap:round;stroke-linejoin:round;fill-opacity:1" /></g>
</svg>

<?xml version='1.0' encoding='UTF-8'?>
<!DOCTYPE svg PUBLIC "-//W3C//DTD SVG 1.0//EN" "C:\SeeVisioDTD\svg10.dtd">
<!--
/*******************************************************************************
* Copyright (c) 2010-2014 ITER Organization.
* All rights reserved. This program and the accompanying materials
* are made available under the terms of the Eclipse Public License v1.0
* which accompanies this distribution, and is available at
* http://www.eclipse.org/legal/epl-v10.html
******************************************************************************/
-->
<svg xmlns="http://www.w3.org/2000/svg" xmlns:xlink="http://www.w3.org/1999/xlink" width="51pt" height="66pt" viewBox="0 0 51 66" version="1.1">
<g id="surface1">
<path style=" stroke:none;fill-rule:evenodd;fill:rgb(100%,100%,100%);fill-opacity:1;" d="M 1.351562 1.351562 L 1.378906 1.351562 L 1.378906 1.390625 L 1.351562 1.390625 Z M 1.351562 1.351562 "/>
<path style=" stroke:none;fill-rule:evenodd;fill:rgb(100%,100%,100%);fill-opacity:1;" d="M 49.15625 65.089844 L 49.183594 65.089844 L 49.183594 65.128906 L 49.15625 65.128906 Z M 49.15625 65.089844 "/>
<path style=" stroke:none;fill-rule:evenodd;fill:rgb(100%,100%,100%);fill-opacity:1;" d="M 1.351562 1.351562 L 1.402344 1.351562 L 1.402344 1.402344 L 1.351562 1.402344 Z M 1.351562 1.351562 "/>
<path style=" stroke:none;fill-rule:evenodd;fill:rgb(100%,100%,100%);fill-opacity:1;" d="M 49.183594 64.96875 L 49.238281 64.96875 L 49.238281 65.023438 L 49.183594 65.023438 Z M 49.183594 64.96875 "/>
<path style="fill-rule:evenodd;fill:rgb(65.098039%,65.098039%,65.098039%);fill-opacity:1;stroke-width:0.719998;stroke-linecap:round;stroke-linejoin:round;stroke:rgb(0%,0%,0%);stroke-opacity:1;stroke-miterlimit:3;" d="M 24.529207 11.349964 C 21.008368 5.252037 13.210438 3.16245 7.110428 6.681206 Z M 13.489605 14.531219 L 7.110428 14.531219 L 7.110428 20.910396 L 13.489605 20.910396 Z M 7.110428 28.770825 L 24.529207 24.099984 C 26.806294 20.156228 26.806294 15.295803 24.529207 11.349964 L 7.110428 6.681206 C 3.164588 8.960376 0.735418 13.168717 0.735418 17.724974 C 0.735418 22.281231 3.164588 26.491655 7.110428 28.770825 Z M 13.489605 14.531219 L 13.489605 20.910396 L 7.110428 20.910396 L 7.110428 14.531219 Z M 7.110428 28.770825 C 13.210438 32.289581 21.008368 30.199994 24.529207 24.099984 Z M 7.110428 28.770825 " transform="matrix(1.874997,0,0,1.874997,0,0.000102958)"/>
</g>
</svg>
